icons/midnadark/actions/24/text-speak.svg

<?xml version="1.0" encoding="UTF-8" standalone="no"?>
<!-- Created with Inkscape (http://www.inkscape.org/) -->

<svg
   xmlns:sketch="http://www.bohemiancoding.com/sketch/ns"
   xmlns:dc="http://purl.org/dc/elements/1.1/"
   xmlns:cc="http://creativecommons.org/ns#"
   xmlns:rdf="http://www.w3.org/1999/02/22-rdf-syntax-ns#"
   xmlns:svg="http://www.w3.org/2000/svg"
   xmlns="http://www.w3.org/2000/svg"
   xmlns:sodipodi="http://sodipodi.sourceforge.net/DTD/sodipodi-0.dtd"
   xmlns:inkscape="http://www.inkscape.org/namespaces/inkscape"
   width="22"
   height="22"
   id="svg3869"
   version="1.1"
   inkscape:version="0.91 r13725"
   sodipodi:docname="text-speak.svg">
  <defs
     id="defs3871">
    <linearGradient
       id="linearGradient4290-48">
      <stop
         id="stop4292-0"
         offset="0"
         style="stop-color:#a5a5a5;stop-opacity:1;" />
      <stop
         id="stop4294-0"
         offset="1"
         style="stop-color:#f5f2f5;stop-opacity:1;" />
    </linearGradient>
    <inkscape:perspective
       id="perspective4146-9"
       inkscape:persp3d-origin="12 : 8 : 1"
       inkscape:vp_z="24 : 12 : 1"
       inkscape:vp_y="0 : 1000 : 0"
       inkscape:vp_x="0 : 12 : 1"
       sodipodi:type="inkscape:persp3d" />
    <inkscape:perspective
       id="perspective4146"
       inkscape:persp3d-origin="12 : 8 : 1"
       inkscape:vp_z="24 : 12 : 1"
       inkscape:vp_y="0 : 1000 : 0"
       inkscape:vp_x="0 : 12 : 1"
       sodipodi:type="inkscape:persp3d" />
    <inkscape:perspective
       sodipodi:type="inkscape:persp3d"
       inkscape:vp_x="0 : 12 : 1"
       inkscape:vp_y="0 : 1000 : 0"
       inkscape:vp_z="24 : 12 : 1"
       inkscape:persp3d-origin="12 : 8 : 1"
       id="perspective4146-9-1" />
    <inkscape:perspective
       sodipodi:type="inkscape:persp3d"
       inkscape:vp_x="0 : 12 : 1"
       inkscape:vp_y="0 : 1000 : 0"
       inkscape:vp_z="24 : 12 : 1"
       inkscape:persp3d-origin="12 : 8 : 1"
       id="perspective4146-96" />
    <clipPath
       clipPathUnits="userSpaceOnUse"
       id="clipPath16">
      <path
         d="m 0,706.465 1490.926,0 L 1490.926,0 0,0 0,706.465 Z"
         id="path18"
         inkscape:connector-curvature="0" />
    </clipPath>
    <clipPath
       clipPathUnits="userSpaceOnUse"
       id="clipPath24">
      <path
         d="m 22.1953,686.117 1447.7347,0 0,-667.1902 -1447.7347,0 0,667.1902 z"
         id="path26"
         inkscape:connector-curvature="0" />
    </clipPath>
    <inkscape:perspective
       id="perspective4146-7"
       inkscape:persp3d-origin="12 : 8 : 1"
       inkscape:vp_z="24 : 12 : 1"
       inkscape:vp_y="0 : 1000 : 0"
       inkscape:vp_x="0 : 12 : 1"
       sodipodi:type="inkscape:persp3d" />
    <inkscape:perspective
       id="perspective4090"
       inkscape:persp3d-origin="12 : 8 : 1"
       inkscape:vp_z="24 : 12 : 1"
       inkscape:vp_y="0 : 1000 : 0"
       inkscape:vp_x="0 : 12 : 1"
       sodipodi:type="inkscape:persp3d" />
    <clipPath
       id="clipPath16-7"
       clipPathUnits="userSpaceOnUse">
      <path
         id="path18-1"
         d="m 0,706.465 1490.926,0 L 1490.926,0 0,0 0,706.465 Z"
         inkscape:connector-curvature="0" />
    </clipPath>
    <clipPath
       id="clipPath24-9"
       clipPathUnits="userSpaceOnUse">
      <path
         id="path26-6"
         d="m 22.1953,686.117 1447.7347,0 0,-667.1902 -1447.7347,0 0,667.1902 z"
         inkscape:connector-curvature="0" />
    </clipPath>
    <clipPath
       id="clipPath4534"
       clipPathUnits="userSpaceOnUse">
      <rect
         style="fill:url(#linearGradient4538);fill-opacity:1;stroke:none"
         id="rect4536"
         width="31.999989"
         height="31.999971"
         x="8.0000114"
         y="8.0000038"
         ry="15.999986" />
    </clipPath>
    <clipPath
       id="clipPath4584"
       clipPathUnits="userSpaceOnUse">
      <rect
         style="fill:url(#linearGradient4588);fill-opacity:1;stroke:none"
         id="rect4586"
         width="31.999989"
         height="31.999971"
         x="392.57144"
         y="507.798"
         ry="15.999986" />
    </clipPath>
    <clipPath
       id="clipPath4550"
       clipPathUnits="userSpaceOnUse">
      <rect
         style="fill:url(#linearGradient4554);fill-opacity:1;stroke:none"
         id="rect4552"
         width="31.999989"
         height="31.999971"
         x="392.57144"
         y="507.798"
         ry="15.999986" />
    </clipPath>
    <clipPath
       id="clipPath4568"
       clipPathUnits="userSpaceOnUse">
      <rect
         style="fill:url(#linearGradient4572);fill-opacity:1;stroke:none"
         id="rect4570"
         width="31.999989"
         height="31.999971"
         x="392.57144"
         y="507.798"
         ry="15.999986" />
    </clipPath>
    <clipPath
       id="clipPath4528"
       clipPathUnits="userSpaceOnUse">
      <rect
         style="fill:url(#linearGradient4532);fill-opacity:1;stroke:none"
         id="rect4530"
         width="31.999989"
         height="31.999971"
         x="8.0000114"
         y="8.0000038"
         ry="15.999986" />
    </clipPath>
    <clipPath
       id="clipPath4578"
       clipPathUnits="userSpaceOnUse">
      <rect
         style="fill:url(#linearGradient4582);fill-opacity:1;stroke:none"
         id="rect4580"
         width="31.999989"
         height="31.999971"
         x="392.57144"
         y="507.798"
         ry="15.999986" />
    </clipPath>
    <clipPath
       id="clipPath4562"
       clipPathUnits="userSpaceOnUse">
      <rect
         style="fill:url(#linearGradient4566);fill-opacity:1;stroke:none"
         id="rect4564"
         width="31.999989"
         height="31.999971"
         x="392.57144"
         y="507.798"
         ry="15.999986" />
    </clipPath>
    <clipPath
       id="clipPath4544"
       clipPathUnits="userSpaceOnUse">
      <rect
         style="fill:url(#linearGradient4548);fill-opacity:1;stroke:none"
         id="rect4546"
         width="31.999989"
         height="31.999971"
         x="392.57144"
         y="507.798"
         ry="15.999986" />
    </clipPath>
    <clipPath
       id="clipPath4390"
       clipPathUnits="userSpaceOnUse">
      <rect
         style="fill:url(#linearGradient4532);fill-opacity:1;stroke:none"
         id="rect4392"
         width="31.999989"
         height="31.999971"
         x="8.0000114"
         y="8.0000038"
         ry="15.999986" />
    </clipPath>
    <clipPath
       id="clipPath4407"
       clipPathUnits="userSpaceOnUse">
      <rect
         style="fill:url(#linearGradient4582);fill-opacity:1;stroke:none"
         id="rect4409"
         width="31.999989"
         height="31.999971"
         x="392.57144"
         y="507.798"
         ry="15.999986" />
    </clipPath>
    <clipPath
       id="clipPath4424"
       clipPathUnits="userSpaceOnUse">
      <rect
         style="fill:url(#linearGradient4566);fill-opacity:1;stroke:none"
         id="rect4426"
         width="31.999989"
         height="31.999971"
         x="392.57144"
         y="507.798"
         ry="15.999986" />
    </clipPath>
    <clipPath
       id="clipPath4441"
       clipPathUnits="userSpaceOnUse">
      <rect
         style="fill:url(#linearGradient4548);fill-opacity:1;stroke:none"
         id="rect4443"
         width="31.999989"
         height="31.999971"
         x="392.57144"
         y="507.798"
         ry="15.999986" />
    </clipPath>
    <clipPath
       clipPathUnits="userSpaceOnUse"
       id="clipPath4528-1">
      <rect
         ry="15.999986"
         y="8.0000038"
         x="8.0000114"
         height="31.999971"
         width="31.999989"
         id="rect4530-7"
         style="fill:url(#linearGradient4532);fill-opacity:1;stroke:none" />
    </clipPath>
    <clipPath
       clipPathUnits="userSpaceOnUse"
       id="clipPath4578-8">
      <rect
         ry="15.999986"
         y="507.798"
         x="392.57144"
         height="31.999971"
         width="31.999989"
         id="rect4580-7"
         style="fill:url(#linearGradient4582);fill-opacity:1;stroke:none" />
    </clipPath>
    <clipPath
       clipPathUnits="userSpaceOnUse"
       id="clipPath4562-8">
      <rect
         ry="15.999986"
         y="507.798"
         x="392.57144"
         height="31.999971"
         width="31.999989"
         id="rect4564-8"
         style="fill:url(#linearGradient4566);fill-opacity:1;stroke:none" />
    </clipPath>
    <clipPath
       clipPathUnits="userSpaceOnUse"
       id="clipPath4544-1">
      <rect
         ry="15.999986"
         y="507.798"
         x="392.57144"
         height="31.999971"
         width="31.999989"
         id="rect4546-1"
         style="fill:url(#linearGradient4548);fill-opacity:1;stroke:none" />
    </clipPath>
    <linearGradient
       id="linearGradient5263">
      <stop
         offset="0"
         style="stop-color:#a0d5ff;stop-opacity:1"
         id="stop5265" />
      <stop
         offset="1"
         style="stop-color:#a0d5ff;stop-opacity:1"
         id="stop5267" />
    </linearGradient>
  </defs>
  <sodipodi:namedview
     id="base"
     pagecolor="#ffffff"
     bordercolor="#666666"
     borderopacity="1.0"
     inkscape:pageopacity="0.0"
     inkscape:pageshadow="2"
     inkscape:zoom="11.313708"
     inkscape:cx="2.1403986"
     inkscape:cy="10.780407"
     inkscape:document-units="px"
     inkscape:current-layer="layer1"
     showgrid="true"
     fit-margin-top="0"
     fit-margin-left="0"
     fit-margin-right="0"
     fit-margin-bottom="0"
     inkscape:window-width="1366"
     inkscape:window-height="633"
     inkscape:window-x="0"
     inkscape:window-y="33"
     inkscape:window-maximized="1"
     inkscape:showpageshadow="false"
     inkscape:snap-bbox="true"
     inkscape:object-nodes="true">
    <inkscape:grid
       type="xygrid"
       id="grid4132" />
    <sodipodi:guide
       position="4,18"
       orientation="18,0"
       id="guide4138" />
    <sodipodi:guide
       position="5,3"
       orientation="0,18"
       id="guide4140" />
    <sodipodi:guide
       position="20,2.0000174"
       orientation="-18,0"
       id="guide4142" />
    <sodipodi:guide
       position="2,21"
       orientation="0,-18"
       id="guide4144" />
    <sodipodi:guide
       position="3,19.000017"
       orientation="16,0"
       id="guide4146" />
    <sodipodi:guide
       position="2,4"
       orientation="0,16"
       id="guide4148" />
    <sodipodi:guide
       position="21,20"
       orientation="-16,0"
       id="guide4150" />
    <sodipodi:guide
       position="2,20"
       orientation="0,-16"
       id="guide4152" />
  </sodipodi:namedview>
  <metadata
     id="metadata3874">
    <rdf:RDF>
      <cc:Work
         rdf:about="">
        <dc:format>image/svg+xml</dc:format>
        <dc:type
           rdf:resource="http://purl.org/dc/dcmitype/StillImage" />
        <dc:title />
      </cc:Work>
    </rdf:RDF>
  </metadata>
  <g
     inkscape:label="Capa 1"
     inkscape:groupmode="layer"
     id="layer1"
     transform="translate(-326,-534.3622)">
    <g
       id="g4223"
       transform="translate(-1.0000005,1.0000001)"
       style="fill:#ffffff;fill-opacity:1">
      <g
         transform="matrix(1.0585548,0,0,1.0585548,-19.791522,-31.875015)"
         inkscape:label="Capa 1"
         id="layer1-3"
         style="fill:#ffffff;fill-opacity:1">
        <g
           transform="matrix(0.66666666,0,0,0.66666666,70.952386,189.8302)"
           id="layer1-7"
           inkscape:label="Capa 1"
           style="fill:#ffffff;fill-opacity:1">
          <g
             inkscape:label="Capa 1"
             id="layer1-5"
             transform="matrix(1.5,0,0,1.5,-104.92858,-286.2453)"
             style="fill:#ffffff;fill-opacity:1">
            <g
               transform="matrix(0.28650725,0,0,0.28650725,116.73905,490.74772)"
               id="layer1-3-9"
               inkscape:label="Layer 1"
               style="fill:#ffffff;fill-opacity:1">
              <path
                 style="fill:#ffffff;fill-opacity:1;stroke:none;stroke-width:0.5;stroke-miterlimit:4;stroke-dasharray:none"
                 d="M 11 3 C 6.330612 3 2.53125 6.1855977 2.53125 10.101562 C 2.53125 12.225197 3.6343652 14.20069 5.5664062 15.552734 C 5.7496169 16.659492 5.1141548 17.817886 5.1074219 17.830078 C 4.9623735 18.086016 4.9738736 18.399396 5.1367188 18.646484 C 5.282401 18.867363 5.5266949 19 5.7910156 19 C 5.8192271 19 5.8483232 18.999157 5.8769531 18.996094 C 6.6998586 18.904675 8.0276272 18.279276 9.8261719 17.136719 C 10.213501 17.18159 10.607396 17.203125 11 17.203125 C 15.669524 17.203125 19.46875 14.017497 19.46875 10.101562 C 19.46875 6.1856311 15.669524 3 11 3 z M 10.798828 7.1992188 C 10.884401 7.1992188 10.958924 7.2305299 11.021484 7.2929688 C 11.083923 7.3554681 11.115234 7.4301123 11.115234 7.515625 L 11.115234 12.884766 C 11.115234 12.970278 11.083984 13.04303 11.021484 13.105469 C 10.958985 13.167908 10.884401 13.199219 10.798828 13.199219 C 10.713315 13.199219 10.640624 13.167908 10.578125 13.105469 L 8.9335938 11.462891 L 7.6425781 11.462891 C 7.5570654 11.462891 7.4824818 11.43164 7.4199219 11.369141 C 7.3574225 11.306702 7.3261719 11.231997 7.3261719 11.146484 L 7.3261719 9.2519531 C 7.3261719 9.1664404 7.3574225 9.0937494 7.4199219 9.03125 C 7.4824212 8.9688112 7.5570049 8.9375 7.6425781 8.9375 L 8.9355469 8.9375 L 10.578125 7.2929688 C 10.640624 7.2305299 10.713315 7.1992188 10.798828 7.1992188 z M 12.615234 7.8515625 C 12.65793 7.8515625 12.701445 7.8585879 12.744141 7.875 C 13.204589 8.0690993 13.573904 8.3807123 13.853516 8.8066406 C 14.133128 9.2328112 14.273438 9.6958929 14.273438 10.199219 C 14.273438 10.702545 14.133128 11.167822 13.853516 11.59375 C 13.573904 12.019739 13.204589 12.329278 12.744141 12.523438 C 12.701445 12.539789 12.66058 12.548828 12.621094 12.548828 C 12.53225 12.548828 12.455138 12.517638 12.392578 12.455078 C 12.330139 12.392639 12.298828 12.317935 12.298828 12.232422 C 12.298828 12.104092 12.363858 12.007236 12.492188 11.941406 C 12.676355 11.846022 12.801418 11.773967 12.867188 11.724609 C 13.110584 11.546983 13.300995 11.324807 13.4375 11.056641 C 13.574005 10.788535 13.642578 10.501844 13.642578 10.199219 C 13.642578 9.8965934 13.574005 9.6118553 13.4375 9.34375 C 13.300995 9.0756447 13.110644 8.8534684 12.867188 8.6757812 C 12.801418 8.6264843 12.676355 8.5543686 12.492188 8.4589844 C 12.363858 8.3931541 12.298828 8.2943452 12.298828 8.1660156 C 12.298828 8.0805029 12.330139 8.0078119 12.392578 7.9453125 C 12.455138 7.8828131 12.529722 7.8515625 12.615234 7.8515625 z M 12.121094 9.015625 C 12.170391 9.015625 12.213209 9.0246035 12.246094 9.0410156 C 12.476409 9.1298592 12.660884 9.2828874 12.800781 9.5 C 12.940618 9.7171126 13.009766 9.9492213 13.009766 10.199219 C 13.009766 10.449216 12.940618 10.683021 12.800781 10.898438 C 12.660945 11.113915 12.476409 11.26714 12.246094 11.359375 C 12.213209 11.375727 12.170391 11.384766 12.121094 11.384766 C 12.035581 11.384766 11.962829 11.353833 11.900391 11.292969 C 11.837952 11.232105 11.806641 11.157203 11.806641 11.068359 C 11.806641 10.999259 11.825748 10.940361 11.865234 10.892578 C 11.90472 10.844916 11.951854 10.803991 12.007812 10.769531 C 12.06365 10.735011 12.119823 10.697371 12.175781 10.65625 C 12.23174 10.615068 12.280826 10.556171 12.320312 10.480469 C 12.359738 10.404767 12.378906 10.311076 12.378906 10.199219 C 12.378906 10.087362 12.359677 9.9936705 12.320312 9.9179688 C 12.280826 9.8423276 12.23174 9.7852618 12.175781 9.7441406 C 12.119823 9.7030194 12.06365 9.6653794 12.007812 9.6308594 C 11.951854 9.5963394 11.90472 9.5535818 11.865234 9.5058594 C 11.825688 9.458137 11.806641 9.4011318 11.806641 9.3320312 C 11.806641 9.2432482 11.837952 9.1682861 11.900391 9.1074219 C 11.962829 9.0466182 12.035581 9.015625 12.121094 9.015625 z "
                 transform="matrix(3.2972437,0,0,3.2972437,732.51,154.35195)"
                 id="path7" />
              <g
                 style="fill:#ffffff;fill-opacity:1;stroke:none"
                 transform="translate(725.96018,165.63661)"
                 id="g5257">
                <g
                   style="fill:#ffffff;fill-opacity:1;stroke:none"
                   transform="matrix(0.86821297,0,0,0.86821297,22.89117,3.3794412)"
                   id="g5211">
                  <g
                     style="fill:#ffffff;fill-opacity:1;stroke:none"
                     id="g5213" />
                </g>
                <g
                   style="fill:#ffffff;fill-opacity:1;stroke:none"
                   id="g5221" />
                <g
                   style="fill:#ffffff;fill-opacity:1;stroke:none"
                   id="g5223" />
                <g
                   style="fill:#ffffff;fill-opacity:1;stroke:none"
                   id="g5225" />
                <g
                   style="fill:#ffffff;fill-opacity:1;stroke:none"
                   id="g5227" />
                <g
                   style="fill:#ffffff;fill-opacity:1;stroke:none"
                   id="g5229" />
                <g
                   style="fill:#ffffff;fill-opacity:1;stroke:none"
                   id="g5231" />
                <g
                   style="fill:#ffffff;fill-opacity:1;stroke:none"
                   id="g5233" />
                <g
                   style="fill:#ffffff;fill-opacity:1;stroke:none"
                   id="g5235" />
                <g
                   style="fill:#ffffff;fill-opacity:1;stroke:none"
                   id="g5237" />
                <g
                   style="fill:#ffffff;fill-opacity:1;stroke:none"
                   id="g5239" />
                <g
                   style="fill:#ffffff;fill-opacity:1;stroke:none"
                   id="g5241" />
                <g
                   style="fill:#ffffff;fill-opacity:1;stroke:none"
                   id="g5243" />
                <g
                   style="fill:#ffffff;fill-opacity:1;stroke:none"
                   id="g5245" />
                <g
                   style="fill:#ffffff;fill-opacity:1;stroke:none"
                   id="g5247" />
                <g
                   style="fill:#ffffff;fill-opacity:1;stroke:none"
                   id="g5249" />
              </g>
            </g>
          </g>
        </g>
      </g>
      <g
         style="fill:#ffffff;fill-opacity:1"
         transform="matrix(0.37500001,0,0,0.37500001,211.04968,339.42637)"
         inkscape:label="Capa 1"
         id="layer1-39">
        <g
           style="fill:#ffffff;fill-opacity:1"
           transform="matrix(1.1293076,0,0,1.1293076,-296.98011,-154.21166)"
           id="layer1-4"
           inkscape:label="Capa 1">
          <g
             style="fill:#ffffff;fill-opacity:1"
             transform="matrix(0.14300539,0,0,0.14300539,554.04072,610.29161)"
             sketch:type="MSShapeGroup"
             id="g5548" />
        </g>
      </g>
    </g>
  </g>
</svg>

<svg xmlns="http://www.w3.org/2000/svg" viewBox="0 0 22 22"><defs><clipPath><rect width="32" height="32" x="8" y="8" fill="none" rx="16"/></clipPath><clipPath><rect width="32" height="32" x="392.57" y="507.8" fill="none" rx="16"/></clipPath><clipPath><rect y="507.8" x="392.57" height="32" width="32" fill="none" rx="16"/></clipPath><clipPath><rect width="32" height="32" x="392.57" y="507.8" fill="none" rx="16"/></clipPath><clipPath><rect width="32" height="32" x="392.57" y="507.8" fill="none" rx="16"/></clipPath><clipPath><rect y="507.8" x="392.57" height="32" width="32" fill="none" rx="16"/></clipPath><clipPath><rect y="8" x="8" height="32" width="32" fill="none" rx="16"/></clipPath><clipPath><rect y="507.8" x="392.57" height="32" width="32" fill="none" rx="16"/></clipPath><clipPath><rect width="32" height="32" x="392.57" y="507.8" fill="none" rx="16"/></clipPath><clipPath><rect width="32" height="32" x="392.57" y="507.8" fill="none" rx="16"/></clipPath><clipPath><rect width="32" height="32" x="8" y="8" fill="none" rx="16"/></clipPath><clipPath><path d="m0 706.47h1490.93v-706.47h-1490.93v706.47"/></clipPath><clipPath><path d="m22.2 686.12h1447.73v-667.19h-1447.73v667.19"/></clipPath><clipPath><rect width="32" height="32" x="392.57" y="507.8" fill="none" rx="16"/></clipPath><clipPath><rect width="32" height="32" x="392.57" y="507.8" fill="none" rx="16"/></clipPath><clipPath><rect width="32" height="32" x="392.57" y="507.8" fill="none" rx="16"/></clipPath><clipPath><rect width="32" height="32" x="392.57" y="507.8" fill="none" rx="16"/></clipPath><clipPath><rect width="32" height="32" x="8" y="8" fill="none" rx="16"/></clipPath></defs><path d="m11 3c-4.669 0-8.469 3.186-8.469 7.102 0 2.124 1.103 4.099 3.035 5.451.183 1.107-.452 2.265-.459 2.277-.145.256-.134.569.029.816.146.221.39.354.654.354.028 0 .057-.0001.086-.004.823-.091 2.151-.717 3.949-1.859.387.045.781.066 1.174.066 4.67 0 8.469-3.186 8.469-7.102 0-3.916-3.799-7.102-8.469-7.102m-.201 4.199c.086 0 .16.031.223.094.062.062.094.137.094.223v5.369c0 .086-.031.158-.094.221-.062.062-.137.094-.223.094-.086 0-.158-.031-.221-.094l-1.645-1.643h-1.291c-.086 0-.16-.031-.223-.094-.062-.062-.094-.137-.094-.223v-1.895c0-.086.031-.158.094-.221.062-.062.137-.094.223-.094h1.293l1.643-1.645c.062-.062.135-.094.221-.094m1.816.652c.043 0 .086.007.129.023.46.194.83.506 1.109.932.28.426.42.889.42 1.393 0 .503-.14.969-.42 1.395-.28.426-.649.736-1.109.93-.043.016-.084.025-.123.025-.089 0-.166-.031-.229-.094-.062-.062-.094-.137-.094-.223 0-.128.065-.225.193-.291.184-.095.309-.167.375-.217.243-.178.434-.4.57-.668.137-.268.205-.555.205-.857 0-.303-.069-.587-.205-.855-.137-.268-.327-.49-.57-.668-.066-.049-.191-.121-.375-.217-.128-.066-.193-.165-.193-.293 0-.086.031-.158.094-.221.063-.062.137-.094.223-.094m-.494 1.164c.049 0 .092.009.125.025.23.089.415.242.555.459.14.217.209.449.209.699 0 .25-.069.484-.209.699-.14.215-.324.369-.555.461-.033.016-.076.025-.125.025-.086 0-.158-.031-.221-.092-.062-.061-.094-.136-.094-.225 0-.069.019-.128.059-.176.039-.048.087-.089.143-.123.056-.035.112-.072.168-.113.056-.041.105-.1.145-.176.039-.076.059-.169.059-.281 0-.112-.019-.206-.059-.281-.039-.076-.089-.133-.145-.174-.056-.041-.112-.079-.168-.113-.056-.035-.103-.077-.143-.125-.04-.048-.059-.105-.059-.174 0-.089.031-.164.094-.225.062-.061.135-.092.221-.092" transform="matrix(.99999 0 0 .99999 0-.002)" fill="#fff"/></svg>
